X:1
T:Balquhidder Lasses
C:Traditional
M:C|
L:1/8
Q:1/4=180
K:G t=8
|: BA|G2FG EFGA|B2B2 e3 e|d2A2 ABAF|DEFG A2BA|
G2FG EFGA|B2B2 e3e|d2A2BAGF|E6 :|
B2 |e2efe2B2|efgf e2B^c|d2de dAFA|DEFGA2B2|
e2efe2B2|efgfe2B^c|d2A2BAGF|E6B2|
e2efe2B2|efgfe2B^c|d2de dAFA|DEFG A2BA|
G2FG EFGA|B2B2e3e|d2A2BAGF|E6z2 |
